frontend-test/src/assets/picpay.svg

<svg
   xmlns="http://www.w3.org/2000/svg"
   id="picpay"
   viewBox="0 0 32 32"
   version="1.1"
   width="32"
   height="32">
  <path
     class="logo"
     d="m 33.3,3.5999969 -3.9,0 0,3.8999999 3.9,0 z m -21.9,1.8999999 -5.600001,0 0,4.9000002 5.200001,0 c 3.299999,0 5.199999,1.6 5.199999,4.6 0,3.000002 -1.9,4.700002 -5.199999,4.700002 l -5.200001,0 0,-9.200002 -5.79999995367432,0 0,21.500004 5.79999995367432,0 0,-7.4 5.500001,0 c 6.699999,0 10.599999,-3.600002 10.599999,-9.800004 0,-5.8000001 -3.8,-9.3000001 -10.499999,-9.3000001 z m 25.8,-5.79999985 -11.7,0 0,11.70000005 11.7,0 z m -1.9,9.69999995 -7.8,0 0,-7.8 7.8,0 z"
     style="fill:#ffffff"/>
  <path
     style="fill:#ffffff"
     id="path3337"
     d="m 28.64516,5.4623641 -3.354838,0 0,3.3548383 3.354838,0 z m -18.8387082,1.6344085 -4.8172054,0 0,4.2150534 4.4731194,0 c 2.8387082,0 4.4731162,1.376344 4.4731162,3.956989 0,2.580647 -1.634408,4.043012 -4.4731162,4.043012 l -4.4731194,0 0,-7.913979 -4.98924715367431,0 0,18.494627 4.98924715367431,0 0,-6.365592 4.7311834,0 c 5.7634402,0 9.1182782,-3.096775 9.1182782,-8.43011 0,-4.989248 -3.268817,-8.0000004 -9.0322562,-8.0000004 z m 22.1935472,-4.9892471 -10.064516,0 0,10.0645155 10.064516,0 z m -1.634409,8.3440855 -6.709677,0 0,-6.709677 6.709677,0 z"
     class="logo"/>
</svg>

<svg version="1.1" id="picpay" xmlns="http://www.w3.org/2000/svg" xmlns:xlink="http://www.w3.org/1999/xlink" x="0px" y="0px"
	 viewBox="0 0 32 32" style="enable-background:new 0 0 32 32;" xml:space="preserve">
<style type="text/css">
	.st0{fill:#FFFFFF;}
</style>
<path class="st0" d="M11.4,5.5H5.8v4.9H11c3.3,0,5.2,1.6,5.2,4.6s-1.9,4.7-5.2,4.7H5.8v-9.2H0V32h5.8v-7.4h5.5
	c6.7,0,10.6-3.6,10.6-9.8C21.9,9,18.1,5.5,11.4,5.5z"/>
<path id="path3337" class="st0" d="M28.6,5.5h-3.4v3.4h3.4V5.5z M9.8,7.1H5v4.2h4.5c2.8,0,4.5,1.4,4.5,4s-1.6,4-4.5,4H5v-7.9H0v18.5
	h5v-6.4h4.7c5.8,0,9.1-3.1,9.1-8.4C18.8,10.1,15.6,7.1,9.8,7.1z M32,2.1H21.9v10.1H32V2.1z M30.4,10.5h-6.7V3.7h6.7V10.5z"/>
</svg>
